i-home/img/icq/whatsapp.svg

<svg width="17" height="17" viewBox="0 0 17 17" fill="none" xmlns="http://www.w3.org/2000/svg">
<path d="M14.372 2.60702C12.818 1.05102 10.75 0.193017 8.548 0.192017C4.01 0.192017 0.316002 3.88502 0.315002 8.42502C0.314002 9.87602 0.694002 11.293 1.414 12.541L0.246002 16.807L4.611 15.662C5.813 16.318 7.168 16.664 8.545 16.664H8.548C13.086 16.664 16.779 12.97 16.781 8.43102C16.783 6.23202 15.927 4.16302 14.372 2.60702ZM8.548 15.274H8.546C7.318 15.273 6.114 14.944 5.063 14.32L4.813 14.172L2.223 14.851L2.914 12.326L2.751 12.067C2.066 10.977 1.704 9.71802 1.705 8.42502C1.706 4.65202 4.776 1.58202 8.551 1.58202C10.379 1.58302 12.097 2.29502 13.389 3.58902C14.681 4.88202 15.392 6.60202 15.391 8.43002C15.39 12.205 12.32 15.274 8.548 15.274Z" fill="#2CB642"/>
<path d="M12.302 10.149C12.096 10.046 11.085 9.54805 10.896 9.48005C10.708 9.41105 10.57 9.37705 10.433 9.58305C10.296 9.78905 9.902 10.252 9.782 10.39C9.662 10.527 9.542 10.544 9.336 10.441C9.13 10.338 8.467 10.121 7.682 9.42005C7.07 8.87405 6.658 8.20005 6.537 7.99505C6.417 7.78905 6.524 7.67805 6.627 7.57505C6.72 7.48305 6.833 7.33505 6.936 7.21505C7.039 7.09505 7.073 7.00905 7.142 6.87205C7.211 6.73505 7.176 6.61505 7.125 6.51205C7.073 6.40805 6.662 5.39505 6.49 4.98305C6.323 4.58205 6.154 4.63705 6.028 4.63005C5.908 4.62405 5.77 4.62305 5.633 4.62305C5.496 4.62305 5.273 4.67405 5.084 4.88005C4.896 5.08605 4.364 5.58405 4.364 6.59605C4.364 7.60905 5.101 8.58705 5.204 8.72405C5.307 8.86105 6.655 10.939 8.718 11.83C9.209 12.042 9.592 12.168 9.891 12.263C10.384 12.42 10.832 12.398 11.187 12.345C11.582 12.286 12.404 11.847 12.575 11.367C12.746 10.887 12.746 10.474 12.695 10.389C12.645 10.304 12.508 10.252 12.302 10.149Z" fill="#2CB642"/>
</svg>

<?xml version="1.0" encoding="iso-8859-1"?>
<!-- Generator: Adobe Illustrator 21.0.0, SVG Export Plug-In . SVG Version: 6.00 Build 0)  -->
<svg version="1.1" id="&#x421;&#x43B;&#x43E;&#x439;_1"
	 xmlns="http://www.w3.org/2000/svg" xmlns:xlink="http://www.w3.org/1999/xlink" x="0px" y="0px" viewBox="0 0 17 17"
	 style="enable-background:new 0 0 17 17;" xml:space="preserve">
<g>
	<g>
		<path style="fill:#2CB642;" d="M14.372,2.607c-1.554-1.556-3.622-2.414-5.824-2.415c-4.538,0-8.232,3.693-8.233,8.233
			c-0.001,1.451,0.379,2.868,1.099,4.116l-1.168,4.266l4.365-1.145c1.202,0.656,2.557,1.002,3.934,1.002h0.003
			c4.538,0,8.231-3.694,8.233-8.233C16.783,6.232,15.927,4.163,14.372,2.607z M8.548,15.274H8.546
			c-1.228-0.001-2.432-0.33-3.483-0.954l-0.25-0.148l-2.59,0.679l0.691-2.525l-0.163-0.259c-0.685-1.09-1.047-2.349-1.046-3.642
			c0.001-3.773,3.071-6.843,6.846-6.843c1.828,0.001,3.546,0.713,4.838,2.007c1.292,1.293,2.003,3.013,2.002,4.841
			C15.39,12.205,12.32,15.274,8.548,15.274z"/>
		<path style="fill:#2CB642;" d="M12.302,10.149c-0.206-0.103-1.217-0.601-1.406-0.669c-0.188-0.069-0.326-0.103-0.463,0.103
			c-0.137,0.206-0.531,0.669-0.651,0.807c-0.12,0.137-0.24,0.154-0.446,0.051c-0.206-0.103-0.869-0.32-1.654-1.021
			C7.07,8.874,6.658,8.2,6.537,7.995c-0.12-0.206-0.013-0.317,0.09-0.42c0.093-0.092,0.206-0.24,0.309-0.36
			c0.103-0.12,0.137-0.206,0.206-0.343c0.069-0.137,0.034-0.257-0.017-0.36C7.073,6.408,6.662,5.395,6.49,4.983
			C6.323,4.582,6.154,4.637,6.028,4.63C5.908,4.624,5.77,4.623,5.633,4.623c-0.137,0-0.36,0.051-0.549,0.257
			c-0.188,0.206-0.72,0.704-0.72,1.716c0,1.013,0.737,1.991,0.84,2.128c0.103,0.137,1.451,2.215,3.514,3.106
			c0.491,0.212,0.874,0.338,1.173,0.433c0.493,0.157,0.941,0.135,1.296,0.082c0.395-0.059,1.217-0.498,1.388-0.978
			c0.171-0.48,0.171-0.893,0.12-0.978C12.645,10.304,12.508,10.252,12.302,10.149z"/>
	</g>
</g>
</svg>
